X:1
T:On the Wings of the Morn
T:On the Wings of the Morn
T:William Howard Doane
T:Nellie A. Montgomery, 1896
T:Public Domain Courtesy of the Cyber Hymnal™
T:Public Domain Courtesy of the Cyber Hymnal™
C:William Howard Doane
Z:Public Domain
Z:Courtesy of the Cyber Hymnal™
%%score ( 1 2 ) ( 3 4 )
L:1/8
Q:1/4=103
M:3/4
K:Ab
V:1 treble 
V:2 treble 
V:3 bass 
V:4 bass 
V:1
 [CE]>[=B,=D] | [CE]4 [Ec]>[=D=B] | [Ec]4 (3([CE][EB])[Ac] | [Ae]4 [Ac]>[EB] | [EA]4 [CE]>[CE] | %5
w: 1.~On the|wings of the|morn, speed, * O|speed ye a-|way; There are|
w: 2.~On the|wings of the|morn, speed * a-|way, then, O|speed; Lo! the|
w: 3.~On the|wings of the|morn, speed * ye|on- ward His|love; Tho’ the|
 [DG]2 [DF]2 [DG]2 | [EA]2 [EA]2 [EB]2 | [Ec]2 [EB]2 [=DA]2 | [EB]4 [EB]>[EB] | [EB]4 [Ec]>[Ed] | %10
w: mill- ions who|per- ish be-|cause of de-|lay; Sound the|trump of sal-|
w: hun- gry are|cry- ing, go|help ye their|need; When you|know that a|
w: tempt- er de-|fi- eth, Christ|reign- eth a-|bove; Tell the|wea- ry He|
 [Ee]2 [Ee]2 [Ec]2 | [EA]2 [EA]2 [EB]2 | [Ec]4 [EA]>[EA] | [FA]4 [EG]>[DF] | [CE]2 [EA]2 [Fd]2 | %15
w: va- tion, ye|her- alds of|light; Let the|beams of His|beau- ty dis-|
w: Sav- ior each|want can sup-|ply, Will ye|still lin- ger|on, will ye|
w: giv- eth a|rest from their|cares, And pro-|claim to the|fet- tered that|
 [Ec]2 !fermata![Ec]2 [DB]2 | [CA]4 ||"^Refrain" [CE]>[=B,=D] | [CE]4 [Ec]>[=D=B] | %19
w: pel all the|night.|Speed thee|on, speed thee|
w: leave them to|die?|||
w: free- dom is|theirs.|||
 [Ec]4 (3([CE][EA])[Ac] | [Ae]4 [GB]2 | [Ac]4 [CE]>[=B,=D] | [CE]4 [Ec]>[=D=B] | %23
w: on, Speed * thee|on to-|day; Speed thee|on, speed thee|
w: ||||
w: ||||
 [Ec]4 (3([CE][EA])[Ac] | e4"^riten." [EG]2 | [EA]4 |] %26
w: on, Speed * thee|on to-|day.|
w: |||
w: |||
V:2
 x2 | x6 | x6 | x6 | x6 | x6 | x6 | x6 | x6 | x6 | x6 | x6 | x6 | x6 | x6 | x6 | x4 || x2 | x6 | %19
 x6 | x6 | x6 | x6 | x6 | (A2 G2) x2 | x4 |] %26
V:3
 [A,,A,]>[A,,A,] | [A,,A,]4 A,>A, | A,4 (3(A,C)[A,E] | [E,C]4 [E,E]>[E,D] | %4
w: ~ ~|~ ~ ~|~ ~ * ~|~ ~ ~|
 [A,,C]4 [A,,A,]>[A,,A,] | [E,B,]2 [E,A,]2 [E,B,]2 | [A,,C]2 [C,A,]2 [E,G,]2 | %7
w: ~ ~ ~|~ ~ ~|~ ~ ~|
 A,2 [G,B,]2 [F,B,]2 | [E,G,]4 [E,G,]>[E,G,] | [E,G,]4 [E,A,]>[E,B,] | [A,C]2 [A,C]2 A,2 | %11
w: ~ ~ ~|~ ~ ~|~ ~ ~|~ ~ ~|
 [E,C]2 [E,C]2 [E,G,]2 | [A,,A,]4 [A,,C]>[A,,C] | [D,D]4 [D,A,]>[D,A,] | [A,,A,]2 [C,A,]2 [D,A,]2 | %15
w: ~ ~ ~|~ ~ ~|~ ~ ~|~ ~ ~|
 [E,A,]2 !fermata![E,G,]2 [E,G,]2 | [A,,A,]4 || [A,,A,]>[A,,A,] | [A,,A,]2 [A,,A,]2 A,>A, | %19
w: ~ ~ ~|~|~ ~|on- ward, ~ ~|
 A,2 A,2 (3(A,C)[A,E] | [E,C]4 [E,E]2 | [A,E]4 [A,,A,]>[A,,A,] | [A,,A,]2 [A,,A,]2 A,>A, | %23
w: on- ward ~ * ~|~ ~|~ ~ ~|on- ward, ~ ~|
 A,2 A,2 (3(A,C)[A,E] | C2 B,2 [E,D]2 | [A,,C]4 |] %26
w: on- ward * * *|||
V:4
 x2 | x4 A,>A, | A,4 A,2 | x6 | x6 | x6 | x6 | A,2 x4 | x6 | x6 | x4 A,2 | x6 | x6 | x6 | x6 | x6 | %16
 x4 || x2 | x4 A,>A, | A,2 A,2 A,2 | x6 | x6 | x4 A,>A, | A,2 A,2 A,2 | E,4 x2 | x4 |] %26

